!!!!SEGMENT: Any1009d-Missa_Cueur_langoreulx-Sanctus--Montserrat_766.krn
!!!id: Any1009d
!!!SMS: Montserrat 766
!!!AGN: Mass; Sanctus
!!!voices: 3-5
!!!OPR: Missa Cueur langoreulx (Montserrat 766)
!!!COM: Anonymous
!!!OTL: Sanctus
**kern	**kern	**kern	**kern	**kern
*part5	*part4	*part3	*part2	*part1
*staff5	*staff4	*staff3	*staff2	*staff1
*I"Bassus	*I"Tenor II	*I"Tenor I	*I"Altus	*I"Superius
*I'B	*I'T. II	*I'T. I	*I'A	*I'S
*clefF4	*clefGv2	*clefGv2	*clefGv2	*clefG2
*k[]	*k[]	*k[]	*k[]	*k[]
*C:	*C:	*C:	*C:	*C:
*M3/1	*M3/1	*M3/1	*M3/1	*M3/1
*met(O)	*met(O)	*met(O)	*met(O)	*met(O)
=1	=1	=1	=1	=1
!!section: Sanctus
!!!OMD: Sanctus
!	!	!	!	!LO:TX:a:t=Canon&colon; superius/altus at the lower fifth
1.A	1r	1A	0.r	0.a
.	1r	1c	.	.
2G	.	.	.	.
1F	1D	2d	.	.
.	.	2A	.	.
=2	=2	=2	=2	=2
2.E	2.G	2B	0.r	0g
.	.	2.c	.	.
4D	4F	.	.	.
2C	2E	.	.	.
.	.	4A	.	.
2BB	2D	1d	.	.
1AA	1E	.	.	1a
.	.	2c	.	.
=3	=3	=3	=3	=3
0D	1.F	2B	0.d	2d
.	.	2A	.	2.a
.	.	1A	.	.
.	.	.	.	4g
.	4E	.	.	4f
.	4D	.	.	4e
1D	1A	1r	.	1f
=4	=4	=4	=4	=4
2.AA	1A	1r	0c	0e
4BB	.	.	.	.
2C	2G	1E	.	.
2AA	2A	.	.	.
1GG	2D	2G	1d	1r
.	[2d	[2G	.	.
=5	=5	=5	=5	=5
2r	4d]	4G]	2G	0.r
.	4c	4A	.	.
2G	2.B	4B	2.d	.
.	.	4c	.	.
2D	.	1d	.	.
.	4A	.	4c	.
2F	1A	.	4B	.
.	.	.	4A	.
1E	.	2.e	1B	.
.	2G#i	.	.	.
.	.	4d	.	.
=6	=6	=6	=6	=6
2.AA	2.A	4c	0A	0a
.	.	4B	.	.
.	.	2.A	.	.
4BB	8GL	.	.	.
.	8FJ	.	.	.
2C	2E	.	.	.
.	.	4G	.	.
2D	2D	2F	.	.
2C	2r	2E	1r	2.a
2D	2d	2F	.	.
.	.	.	.	4b
=7	=7	=7	=7	=7
2AA	2e	1E	0.r	2cc
2C	2c	.	.	2a
1GG	2.d	2r	.	2b
.	.	2D	.	1dd
.	4c	.	.	.
1r	2B	2G	.	.
.	2A	2A	.	2cc
=8	=8	=8	=8	=8
2r	1G	2B	0d	1dd
1G	.	1B	.	.
.	1r	.	.	2r
2G	.	4A	.	1dd
.	.	4G	.	.
2F	1r	2A	2.d	.
2G	.	2G	.	2dd
.	.	.	4e	.
=9	=9	=9	=9	=9
2D	0.r	2A	2f	2.dd
2.G	.	2B	2d	.
.	.	.	.	4cc
.	.	1G	2e	2b
4F	.	.	.	.
2E	.	.	1g	4a
.	.	.	.	4g
1D	.	1d	.	1a
.	.	.	2f#i	.
=10	=10	=10	=10	=10
1r	2r	0B	1g	1g
.	1d	.	.	.
1G	.	.	2r	1r
.	2d	.	1g	.
2G	2.d	1r	.	1r
[2G	.	.	2g	.
.	4c	.	.	.
=11	=11	=11	=11	=11
4G]	4B	1r	2.g	0.r
4F	4A	.	.	.
4E	1G	.	.	.
4D	.	.	4f	.
2C	.	2r	2e	.
2E	1c	2G	4d	.
.	.	.	4c	.
2F	.	2A	1d	.
2G	2B	2B	.	.
=12	=12	=12	=12	=12
0C	0c	1G	1c	0g
.	.	1.c	1r	.
1F	1A	.	1r	1a
.	.	2d	.	.
=13	=13	=13	=13	=13
2.E	2.c	0e	0.r	1g
4D	4B	.	.	.
2C	2A	.	.	1.cc
2BB	2G	.	.	.
[1AA	1A	[1c	.	.
.	.	.	.	2b
=14	=14	=14	=14	=14
2AA]	1F	2c]	0c	1a
2BB	.	2d	.	.
1C	1E	1e	.	2g
.	.	.	.	4f
.	.	.	.	4e
1r	1D	1A	1d	1f
=15	=15	=15	=15	=15
1AA	0.A	1r	1c	1e
1.D	.	1.d	1.f	1r
.	.	.	.	1r
2E	.	4c	2e	.
.	.	4B	.	.
=16	=16	=16	=16	=16
2F	1r	2A	1d	1r
2G	.	2B	.	.
2A	1r	2c	2c	1r
2F	.	2d	4B	.
.	.	.	4A	.
1G	1E	1e	1B	1g
=17	=17	=17	=17	=17
2D	2F	2d	1A	1a
2F	2D	1d	.	.
2C	2E	.	1r	2g
2E	1G	1c	.	4f
.	.	.	.	4e
1D	.	.	1r	1f
.	2F	2B	.	.
=18	=18	=18	=18	=18
1.C	1G	0.c	1r	1e
.	2E	.	1r	2r
2AA	2F	.	.	2cc
1AA	1E	.	1c	2cc
.	.	.	.	2cc
=19	=19	=19	=19	=19
2r	0.r	0.r	1d	2a
2D	.	.	.	1b
2E	.	.	2c	.
2F	.	.	4B	1a
.	.	.	4A	.
1E	.	.	1B	.
.	.	.	.	2g#i
=20	=20	=20	=20	=20
2r	1D	1d	1A	[0.al
2F	.	.	.	.
2F	1A	2c	2r	.
2F	.	1A	2f	.
[1D	2.F	.	2f	.
.	.	[2d	2f	.
.	4G	.	.	.
=21	=21	=21	=21	=21
2D]	4A	2d]	2d	0.a_
.	4B	.	.	.
2AA	2.A	2.c	1e	.
2C	.	.	.	.
.	4G	4B	.	.
2D	2F	4A	1d	.
.	.	4G	.	.
1AA	1E	1A	.	.
.	.	.	2c#i	.
=22	=22	=22	=22	=22
0.Dl	0.Dl	0.Fl	0.dl	0.a]
=23||	=23||	=23||	=23||	=23||
*M2/1	*M2/1	*M2/1	*M2/1	*M2/1
*met(C|)	*met(C|)	*met(C|)	*met(C|)	*met(C|)
!!section: Pleni sunt
!!!OMD: Pleni sunt
0r	0r	0r	1d	1r
.	.	.	2d	1a
.	.	.	2d	.
=24	=24	=24	=24	=24
0r	0r	0r	1d	2a
.	.	.	.	2a
.	.	.	1c	1a
=25	=25	=25	=25	=25
0r	0r	0r	2r	1g
.	.	.	2c	.
.	.	.	2B	2r
.	.	.	2c	2g
=26	=26	=26	=26	=26
1D	0r	0r	1.d	2f
.	.	.	.	2g
2D	.	.	.	[1a
2D	.	.	4c	.
.	.	.	4B	.
=27	=27	=27	=27	=27
1D	0r	0r	2.A	2a]
.	.	.	.	4g
.	.	.	4B	4f
1C	.	.	4c	2.e
.	.	.	4d	.
.	.	.	[2c	.
.	.	.	.	4f
=28	=28	=28	=28	=28
2r	0r	0r	2c]	2g
2C	.	.	4B	1g
.	.	.	4A	.
2C	.	.	1G	.
2C	.	.	.	4f
.	.	.	.	4e
=29	=29	=29	=29	=29
2.D	0r	0r	2r	4d
.	.	.	.	4e
.	.	.	2.A	4f
4E	.	.	.	4g
2F	.	.	.	2a
.	.	.	4B	.
2E	.	.	2c	2g
=30	=30	=30	=30	=30
2D	0r	0r	2B	2r
1F	.	.	2A	2cc
.	.	.	2c	2a
4E	.	.	2d	2b
4D	.	.	.	.
=31	=31	=31	=31	=31
2C	0r	0r	2e	2cc
2D	.	.	4d	1a
.	.	.	4c	.
1E	.	.	1B	.
.	.	.	.	2g
=32	=32	=32	=32	=32
1AA	0r	0r	2r	1cc
.	.	.	2e	.
2r	.	.	2.e	1b
2E	.	.	.	.
.	.	.	4d	.
=33	=33	=33	=33	=33
2E	0r	0r	2c	2r
2E	.	.	2B	2g
2.F	.	.	2.A	2.a
4G	.	.	4B	4g
=34	=34	=34	=34	=34
2A	0r	0r	4c	4e
.	.	.	4A	4f
2G	.	.	2B	2g
2F	.	.	1A	2c
[2D	.	.	.	[2f
=35	=35	=35	=35	=35
4D]	0r	0r	2r	4f]
4E	.	.	.	4g
4F	.	.	2d	4a
4D	.	.	.	4f
2E	.	.	2c	2g
2D	.	.	4d	2f
.	.	.	4e	.
=36	=36	=36	=36	=36
2r	0r	0r	4f	2d
.	.	.	4d	.
1G	.	.	2e	1g
.	.	.	1d	.
2F	.	.	.	2a
=37	=37	=37	=37	=37
2E	0r	0r	2r	2g
2.C	.	.	2G	2.e
.	.	.	2.G	.
4D	.	.	.	4f
4E	.	.	.	2g
4C	.	.	4A	.
=38	=38	=38	=38	=38
2D	0r	0r	2B	2f
2C	.	.	2c	2e
2r	.	.	1e	2.g
2C	.	.	.	.
.	.	.	.	4e
=39	=39	=39	=39	=39
2D	0r	0r	2d	2f
2E	.	.	2c	2g
2.F	.	.	2A	[1a
.	.	.	2c	.
4E	.	.	.	.
=40	=40	=40	=40	=40
2D	0r	0r	2d	1a]
2C	.	.	2e	.
2D	.	.	2.f	1r
[2F	.	.	.	.
.	.	.	8eL	.
.	.	.	8dJ	.
=41	=41	=41	=41	=41
2F]	0r	0r	2c	2r
4E	.	.	1d	2a
4D	.	.	.	.
1E	.	.	.	2g
.	.	.	2c#i	2e
=42	=42	=42	=42	=42
1D	0r	0r	2d	2.f
.	.	.	2B	.
.	.	.	.	4d
2r	.	.	1A	2e
2D	.	.	.	2f
=43	=43	=43	=43	=43
2E	0r	0r	2r	2g
2F	.	.	2A	2a
2.G	.	.	4B	2d
.	.	.	4c	.
.	.	.	4d	[2g
4F	.	.	4B	.
=44	=44	=44	=44	=44
2E	0r	0r	2c	2g]
2D	.	.	2d	2f
2.C	.	.	2e	2g
.	.	.	2A	2c
8BBL	.	.	.	.
8AAJ	.	.	.	.
=45	=45	=45	=45	=45
2BB	0r	0r	2G	2d
2AA	.	.	2A	2f
2r	.	.	1c	4e
.	.	.	.	4d
[2E	.	.	.	4e
.	.	.	.	4f
=46	=46	=46	=46	=46
2E]	0r	0r	4B	1g
.	.	.	4A	.
2E	.	.	4B	.
.	.	.	4c	.
2F	.	.	1d	2r
2G	.	.	.	2b
=47	=47	=47	=47	=47
2.A	0r	0r	2r	2.cc
.	.	.	2c	.
4G	.	.	.	4b
2F	.	.	2d	2a
2E	.	.	2e	2g
=48	=48	=48	=48	=48
2D	0r	0r	2f	2f
2E	.	.	2e	2g
2.F	.	.	4A	1a
.	.	.	4B	.
.	.	.	4c	.
8EL	.	.	4d	.
8DJ	.	.	.	.
=49	=49	=49	=49	=49
2C	0r	0r	2e	2r
2D	.	.	1d	2f
1AA	.	.	.	2f
.	.	.	2c	2e
=50	=50	=50	=50	=50
2r	0r	0r	1f	2d
2D	.	.	.	2a
2D	.	.	1e	2b
2C	.	.	.	2cc
=51	=51	=51	=51	=51
2.F	0r	0r	2r	1a
.	.	.	2A	.
4F	.	.	.	.
2F	.	.	2A	1r
2E	.	.	2G	.
=52	=52	=52	=52	=52
1D	0r	0r	2.d	2r
.	.	.	.	2a
.	.	.	4d	.
1E	.	.	2c	2a
.	.	.	2B	2g
=53	=53	=53	=53	=53
2r	0r	0r	1A	2.cc
2AA	.	.	.	.
.	.	.	.	4cc
2AA	.	.	1r	2cc
2GG	.	.	.	2b
=54	=54	=54	=54	=54
2.D	0r	0r	2r	1a
.	.	.	2A	.
4D	.	.	.	.
2C	.	.	2A	1r
2BB	.	.	2G	.
=55	=55	=55	=55	=55
1AA	0r	0r	2.c	2r
.	.	.	.	2e
.	.	.	4c	.
2r	.	.	2c	2e
2D	.	.	2B	2d
=56	=56	=56	=56	=56
2D	0r	0r	1A	2.a
2F	.	.	.	.
.	.	.	.	4a
2E	.	.	2r	2g
2D	.	.	2A	2f
=57	=57	=57	=57	=57
2.A	0r	0r	2c	2e
.	.	.	2c	2.a
4G	.	.	.	.
4F	.	.	2.d	.
4E	.	.	.	4g
[2D	.	.	.	4f
.	.	.	4e	4e
=58	=58	=58	=58	=58
2D]	0r	0r	2f	2d
2C	.	.	2e	2e
1D	.	.	1d	1f
=59	=59	=59	=59	=59
0AAl	0r	0r	0cl	0el
=60||	=60||	=60||	=60||	=60||
*M2/1	*M2/1	*M2/1	*M2/1	*M2/1
*met(C|)	*met(C|)	*met(C|)	*met(C|)	*met(C|)
!!section: Osanna
!!!OMD: Osanna
0D	0A	0d	0r	0a
=61	=61	=61	=61	=61
1D	1F	1d	0r	1a
2E	2G	2B	.	1g
[2C	[2E	[2e	.	.
=62	=62	=62	=62	=62
2C]	4E]	2e]	0r	2r
.	4F	.	.	.
2BB	1G	2d	.	2g
1AA	.	1c	.	1a
.	2F#i	.	.	.
=63	=63	=63	=63	=63
2r	2G	2B	0d	2d
2D	2F	2A	.	2.a
2F	1D	2r	.	.
.	.	.	.	4g
[2D	.	2A	.	4f
.	.	.	.	4e
=64	=64	=64	=64	=64
4D]	1A	4F	1d	1f
4E	.	4G	.	.
4F	.	4A	.	.
4G	.	4B	.	.
2.A	2r	2c	1c	1e
.	2A	[2A	.	.
4G	.	.	.	.
=65	=65	=65	=65	=65
2F	2D	2A]	2r	1r
2E	2E	2G	2c	.
1D	1F	1A	1d	1a
=66	=66	=66	=66	=66
1r	2E	0r	2G	2b
.	2.F	.	2.d	2a
[1D	.	.	.	2d
.	4G	.	4c	.
.	2A	.	4B	[2a
.	.	.	4A	.
=67	=67	=67	=67	=67
2D]	2F	0r	1B	2a]
2E	2G	.	.	2g
2F	2D	.	1A	1f
2D	[2A	.	.	.
=68	=68	=68	=68	=68
1C	4A]	1r	1r	1e
.	4G	.	.	.
.	2c	.	.	.
1G	1B	2r	1d	1r
.	.	2B	.	.
=69	=69	=69	=69	=69
2C	1A	2c	2e	2r
2D	.	2A	2d	2a
2E	1r	2c	2G	2g
[2G	.	[2B	[2d	[2b
=70	=70	=70	=70	=70
2G]	0r	4B]	2d]	2b]
.	.	4A	.	.
2A	.	4c	2c	1a
.	.	4d	.	.
1E	.	1e	1B	.
.	.	.	.	2g#i
=71	=71	=71	=71	=71
1AA	1.E	2r	1A	2a
.	.	2.e	.	4e
.	.	.	.	4f
1E	.	.	1r	4g
.	.	4d	.	4a
.	2G	4B	.	[2b
.	.	4c	.	.
=72	=72	=72	=72	=72
2.D	2.F	2.d	2r	4b]
.	.	.	.	4a
.	.	.	2d	1a
4E	4G	4c	.	.
2F	4A	2A	2c	.
.	4F	.	.	.
2E	2G	2B	[2e	2g
=73	=73	=73	=73	=73
2C	2E	2c	2e]	0a
2D	2F	2.A	1d	.
1AA	1E	.	.	.
.	.	4G	.	.
.	.	2E	2c#i	.
=74	=74	=74	=74	=74
1r	1D	1F	2d	0r
.	.	.	4A	.
.	.	.	4B	.
2.AA	1A	2E	4c	.
.	.	.	4d	.
.	.	2A	[2e	.
4BB	.	.	.	.
=75	=75	=75	=75	=75
2C	0r	2G	4e]	2r
.	.	.	4d	.
2D	.	2F	1d	2.a
1AA	.	1E	.	.
.	.	.	.	4b
.	.	.	2c#i	2cc
=76	=76	=76	=76	=76
1D	2r	0D	0d	2b
.	2d	.	.	2.a
2r	2.d	.	.	.
.	.	.	.	4g
2D	.	.	.	4f
.	4c	.	.	4e
=77	=77	=77	=77	=77
2.D	2B	0r	0r	2d
.	2A	.	.	1dd
4C	.	.	.	.
2BB	2G	.	.	.
2AA	4A	.	.	2cc
.	4F	.	.	.
=78	=78	=78	=78	=78
2GG	1G	0r	2r	1b
1G	.	.	2.d	.
.	1D	.	.	1a
.	.	.	4e	.
2F#i	.	.	2f	.
=79	=79	=79	=79	=79
0G	0r	2r	2e	0g
.	.	2G	2.d	.
.	.	2.B	.	.
.	.	.	4c	.
.	.	.	4B	.
.	.	4c	4A	.
=80	=80	=80	=80	=80
2r	0r	2d	2G	2r
1C	.	1e	1g	2g
.	.	.	.	1a
2D	.	4d	2f	.
.	.	4c	.	.
=81	=81	=81	=81	=81
2E	0r	2B	1e	2g
2C	.	2c	.	1cc
1G	.	1G	1d	.
.	.	.	.	2b
=82	=82	=82	=82	=82
2r	0r	1r	0c	1a
1F	.	.	.	.
.	.	2r	.	1g
2E	.	2c	.	.
=83	=83	=83	=83	=83
2D	0r	2B	2r	0r
1C	.	1A	2c	.
.	.	.	1d	.
2BB	.	2G#i	.	.
=84	=84	=84	=84	=84
2AA	2r	2A	2c	0r
1BB-X	1D	1d	1f	.
2C	2E	2c	2e	.
=85	=85	=85	=85	=85
2D	2F	2A	1d	1r
2GG	2G	2B	.	.
1AA	1E	1A	1c	1e
=86	=86	=86	=86	=86
0D	1D	1r	0r	1f
.	1F	1A	.	1a
=87	=87	=87	=87	=87
0r	2.E	1c	0r	2.g
.	4F	.	.	4f
.	2G	2B	.	4e
.	.	.	.	4d
.	[2A	[2c	.	[2f
=88	=88	=88	=88	=88
0r	4A]	4c]	1r	2f]
.	4E	4A	.	.
.	2G	2B	.	1e
.	1F	2c	1A	.
.	.	2d	.	2d
=89	=89	=89	=89	=89
1r	1E	1G	1B	1e
1D	1D	[1A	1d	1f
=90	=90	=90	=90	=90
2.AA	2r	1A]	2.c	0e
.	2.E	.	.	.
4BB	.	.	4B	.
4C	.	1r	4A	.
4D	4F	.	4G	.
2E	2G	.	[2B	.
=91	=91	=91	=91	=91
2C	2E	1r	2B]	0r
2D	2F	.	1A	.
1BB	1D	1d	.	.
.	.	.	2G#i	.
=92	=92	=92	=92	=92
1AA	1E	1c	1A	2r
.	.	.	.	1a
1r	1r	1d	1B	.
.	.	.	.	2g
=93	=93	=93	=93	=93
1r	2r	2e	0A	1cc
.	1F	4A	.	.
.	.	4B	.	.
2r	.	4c	.	2cc
.	.	4d	.	.
2AA	2E	4e	.	2cc
.	.	4c	.	.
=94	=94	=94	=94	=94
2BB	2D	4d	0r	2b
.	.	4c	.	.
2C	2E	4B	.	1a
.	.	4A	.	.
2D	2F	1B	.	.
2E	2G	.	.	2g#i
=95	=95	=95	=95	=95
2C	2E	1A	2r	[0al
2D	2F	.	1d	.
1AA	2E	2r	.	.
.	2A	2c	2c	.
=96	=96	=96	=96	=96
1.D	2F	2A	1f	0a_
.	4D	4F	.	.
.	4E	4G	.	.
.	4F	4A	2f	.
.	4G	4B	.	.
2AA	4A	[2c	2f	.
.	4F	.	.	.
=97	=97	=97	=97	=97
2C	4G	2c]	2e	0a_
.	4F	.	.	.
2D	4E	2.A	1d	.
.	4D	.	.	.
1AA	1E	.	.	.
.	.	4G	.	.
.	.	2E	2c#i	.
=98	=98	=98	=98	=98
[0Dl	[0Dl	2F	[0dl	0a_
.	.	2D	.	.
.	.	1A	.	.
=99	=99	=99	=99	=99
0D]	0D]	0Fl	0d]	0a]
==	==	==	==	==
*-	*-	*-	*-	*-
!!!system-decoration: s1,s2,s3,s4,s5
!!!RDF**kern: i = editorial accidental
!!!RDF**kern: l = terminal long
!!!ENC: Maura Sugg
!!!END: 2026/6/28
!!!EED: Benjamin Ory
!!!EEV: 2026/06/29
!!!YEC: Copyright 2026 Benjamin Ory, All Rights Reserved
!!!ONB: Translated from MusicXML on 2026/06/29
!!!verovio: header encoded
!!!header-left: Edited by Zoe Saunders (2010)\n
!!!header-right:
!!!header-center:
!!muse2ps: T^@{OPR}^u^@{ONM}{. }@{OTL}^C^@{COM}^i2I150v90,90,90,90,120c120z18l2770t130
